X: 1
T: Buckley's Fancy
M: 4/4
L: 1/8
R: reel
K: Gmaj
G2BG dGBG|c3d efgz|G2BG dGBG|ABAG FA (3DEF|
G2BG dGBG|c3d efga|bgga gedB|1 GBAF GBdB:|2 GBAF GABd||
|:~g3a gede|g2bg ageg|~a3b ageg|agbg agef|
~g3a gede|g2bg agef|~g3a gedB|1 GBAF GABd:|2 GBAF GBdB||
